X:1
T:The Kings of Inishbofin
M:6/8
L:1/8
R:Jig
K:Dmaj
|: ABd AFA |GEE E3 |Ace ged |cdB A2G |
FAd fFA |GEE E3 |Ace gec |BcA d3 :|
|: f2f fdA |B2B gec |Ace gec |Ace bag |
f2f fdA |B2B gec |Ace bag| fge d3 :|
